logos/corda.svg

<?xml version="1.0" encoding="UTF-8"?>
<svg width="512px" height="157px" viewBox="0 0 512 157" version="1.1" xmlns="http://www.w3.org/2000/svg" xmlns:xlink="http://www.w3.org/1999/xlink" preserveAspectRatio="xMidYMid">
    <title>Corda</title>
    <g>
        <path d="M477.81077,145.721695 C457.633765,164.666344 409.541766,160.63797 409.541766,123.27073 C409.541766,83.8930683 451.331432,80.8535917 477.559781,83.2455167 L477.559781,83.1074728 C476.595983,62.5062969 441.901775,67.5812942 428.049693,78.5118645 C423.717623,72.3776937 416.368666,61.4044552 413.359308,56.4499327 C429.299618,44.297046 468.23554,35.4346249 488.154026,46.6186941 C502.884516,54.8655813 512.005178,70.4321514 511.997983,87.3140482 L511.997983,154.097197 L478.736919,154.097197 L477.81077,145.721695 Z M346.947623,144.813115 C311.558176,172.542378 275.267678,146.213633 270.744857,110.543079 C265.112664,66.1130086 300.765649,30.8289771 346.664005,46.2070722 L346.664005,1.13686838e-13 L381.65187,1.13686838e-13 L381.65187,154.107237 L347.981697,154.107237 L346.947623,144.813115 Z M346.661495,107.385637 L346.661495,76.5265416 C331.49925,69.7121907 308.089508,69.4486522 305.961121,100.430733 C303.777517,132.16327 343.928225,135.388478 346.661495,107.383127 M212.357289,56.2516514 C222.600986,43.8896072 237.16755,40.3272369 256.056981,45.5645404 C253.212439,61.0204421 251.258072,71.4615839 250.193879,76.8879658 C222.969103,72.2020014 212.944603,80.2989061 212.826638,103.778926 L212.826638,154.26285 L177.851323,154.26285 L177.851323,45.1077404 L211.529025,45.1077404 L212.357289,56.2516514 Z M90.1507521,53.6539154 C80.4944861,60.6702338 73.2934304,70.549731 69.5696553,81.8901762 C59.8189699,74.8110108 46.1759073,76.9751138 39.0945727,86.7242241 C35.6947272,91.4063938 34.2947477,97.2476581 35.2027827,102.9623 C36.1108177,108.676943 39.2524403,113.796563 43.9361503,117.194287 C51.5786628,122.746601 61.9271428,122.746601 69.5696553,117.194287 C73.2934304,128.534732 80.4944861,138.414229 90.1507521,145.430548 C77.9806357,154.289153 62.789559,157.949587 47.9202609,155.606387 C33.0509627,153.263186 19.7218133,145.108349 10.8658416,132.936316 C2.00723653,120.7662 -1.65319803,105.575123 0.690002644,90.7058248 C3.03320332,75.8365267 11.1880405,62.5073773 23.3600732,53.6514055 C43.2671181,39.164942 70.2437072,39.164942 90.1507521,53.6514055 M477.426756,106.524745 C466.985615,106.65024 443.432808,102.910504 443.972435,120.07815 C444.512061,137.245797 477.426756,134.241459 477.426756,114.39325 L477.426756,106.537295 M123.602564,121.383293 C111.553521,121.352835 101.810163,111.561159 101.839244,99.5121129 C101.868385,87.4654396 111.65628,77.7224898 123.70296,77.7488046 C135.732382,77.7765341 145.469882,87.5353669 145.471234,99.5648206 C145.449076,111.625818 135.661069,121.389114 123.600054,121.380783" fill="#E0081C"></path>
    </g>
</svg>

<svg preserveAspectRatio="xMidYMid" viewBox="0 0 512 157" xmlns="http://www.w3.org/2000/svg">
  <path fill="#E0081C" d="M477.81 145.722c-20.176 18.944-68.268 14.916-68.268-22.451 0-39.378 41.79-42.417 68.018-40.025v-.139c-.964-20.6-35.658-15.526-49.51-4.595-4.332-6.134-11.681-17.108-14.69-22.062 15.94-12.153 54.876-21.015 74.794-9.831a46.616 46.616 0 0 1 23.844 40.695v66.783h-33.261l-.926-8.375Zm-130.862-.909c-35.39 27.73-71.68 1.4-76.203-34.27-5.632-44.43 30.02-79.714 75.919-64.336V0h34.988v154.107h-33.67l-1.034-9.294Zm-.287-37.427v-30.86c-15.162-6.814-38.571-7.077-40.7 23.905-2.183 31.732 37.967 34.957 40.7 6.952M212.357 56.252c10.244-12.362 24.81-15.925 43.7-10.687-2.845 15.455-4.799 25.897-5.863 31.323-27.225-4.686-37.25 3.41-37.367 26.89v50.485H177.85V45.108h33.678l.828 11.144ZM90.151 53.654A56.811 56.811 0 0 0 69.57 81.89c-9.751-7.079-23.394-4.915-30.475 4.834a21.81 21.81 0 0 0 4.841 30.47 21.806 21.806 0 0 0 25.634 0 56.811 56.811 0 0 0 20.58 28.237 56.749 56.749 0 0 1-79.284-12.495A56.749 56.749 0 0 1 23.36 53.651c19.907-14.486 46.884-14.486 66.79 0m387.277 52.874c-10.441.125-33.994-3.614-33.455 13.553.54 17.168 33.455 14.163 33.455-5.685v-7.856m-353.824 14.846c-12.05-.03-21.793-9.822-21.764-21.87.03-12.048 9.817-21.79 21.864-21.764 12.03.028 21.767 9.786 21.768 21.816-.022 12.06-9.81 21.824-21.87 21.816"/>
</svg>
